dist/icons/svgs/exclamation-triangle-solid.svg

<svg xmlns="http://www.w3.org/2000/svg" width="24" height="24" fill="currentcolor" class="icon-exclamation-triangle-solid" viewBox="0 0 24 24">
  <path d="M12 3.25C12.5469 3.25 13.0547 3.5625 13.3281 4.03125L21.7656 18.4062C22.0391 18.9141 22.0391 19.5 21.7656 19.9688C21.4922 20.4766 20.9844 20.75 20.4375 20.75H3.5625C2.97656 20.75 2.46875 20.4766 2.19531 19.9688C1.92188 19.5 1.92188 18.9141 2.19531 18.4062L10.6328 4.03125C10.9062 3.5625 11.4141 3.25 12 3.25ZM12 8.25C11.4531 8.25 11.0625 8.67969 11.0625 9.1875V13.5625C11.0625 14.1094 11.4531 14.5 12 14.5C12.5078 14.5 12.9375 14.1094 12.9375 13.5625V9.1875C12.9375 8.67969 12.5078 8.25 12 8.25ZM13.25 17C13.25 16.3359 12.6641 15.75 12 15.75C11.2969 15.75 10.75 16.3359 10.75 17C10.75 17.7031 11.2969 18.25 12 18.25C12.6641 18.25 13.25 17.7031 13.25 17Z"/>
</svg>

<svg xmlns="http://www.w3.org/2000/svg" width="24" height="24" fill="currentColor" class="icon-exclamation-triangle-solid" viewBox="0 0 24 24">
  <path d="M12 3.25a1.56 1.56 0 0 1 1.328.781l8.438 14.375c.273.508.273 1.094 0 1.563a1.48 1.48 0 0 1-1.328.781H3.563c-.586 0-1.094-.273-1.368-.781-.273-.469-.273-1.055 0-1.563l8.438-14.375A1.58 1.58 0 0 1 12 3.25m0 5a.925.925 0 0 0-.937.938v4.374c0 .547.39.938.937.938.508 0 .938-.39.938-.937V9.186A.95.95 0 0 0 12 8.25M13.25 17c0-.664-.586-1.25-1.25-1.25-.703 0-1.25.586-1.25 1.25 0 .703.547 1.25 1.25 1.25.664 0 1.25-.547 1.25-1.25"/>
</svg>
